X: 1756
T: Sevdim Yine Bir Nevcivân
C: Basmacı Abdi Efendi
O: Turkey
F: http://compmusic.upf.edu/node/140
N: rast--sarki--yuruksemai--sevdim_yine--basmaci_abdi_efendi
N: makam= rast
N: form= sarki
N: usul= yuruksemai = 6/8
M: 6/8
L: 1/16
K: C _1/4B ^f  
Q: 1/4=132
%%MIDI tuningsystem comma53
d4g4 f4e8d4  | d4=f4 e4d8c4  | B4e4 d4c4 B4A4  | \
w:  ARANAĞME  |   |   | 
G4A4 B4c4 d4e4  | 
w:   | 
d4g4 f4e8d4  | d4=f4 e4d8c4  | B4e4 d4c4 B4A4  | \
w:  ARANAĞME  |   |   | 
G4B4 d4G12  | G8 F4G8A4  | 
w:   |  Sev *  dim  yi  | 
B16-B4z4  | B8 A4B8c4  | d16-d4z4  | g8 f4g8e4  | \
w:  ne   |  bir  *  nev ci  |  vân    |  Aşk_ *  ı  de  | 
d8 =f4e4 d4c4  | B8 A4A4 G4F4  | 
w:  rû  |  num *  da  *  ni  | 
G12F4 E4D4  | G8 F4G8A4  | B16-B4z4  | B8 A4B8c4  | \
w:  hân   SAZ  |  Sev *  dim  yi  |  ne   |  bir  *  nev ci  | 
d16-d4z4  | g8 f4g8e4  | 
w:  vân    |  Aşk_ *  ı  de  | 
d8 =f4e4 d4c4  | B8 A4A4 G4F4  | G16-G4z4  | \
w:  rû  |  num *  da  *  ni  |  hân    | 
g8 f4g8^3/4f4  | e16-e4d4  | e8 d4e8f4  | 
w:  Hüsn_ *  i le   |  müm  |  tâz_ *  ı  ci  | 
g4f4 e4d4 c4B4  | g8 f4g8^3/4f4  | e16-e4d4  | \
w:  hân    |  Hüsn_ *  i le   |  müm  | 
e8 d4e8f4  | g16-g4z4  | g8 f4g8e4  | 
w:  tâz_ *  ı  ci  |  hân    |  Çeşm_ *  i  si  | 
d8 =f4e4 d4c4  | B8 A4A4 G4F4  | G4A4 B4c4 d4e4  | \
w:  yah   |  ka *  şı  *  ke  |  man    | 
g8 f4g8e4  | d8 =f4e4 d4c4  | 
w:  Dil  *  müp te  |  lâ  | 
B8 A4A4 G4F4  | G16-G4z4  | g8 f4g8e4  | \
w:  dır  *  el_ *  a  |  man    |  Çeşm_ *  i  si  | 
d8 =f4e4 d4c4  | B8 A4A4 G4F4  | 
w:  yah   |  ka *  şı  *  ke  | 
G4A4 B4c4 d4e4  | g8 f4g8e4  | d8 =f4e4 d4c4  | \
w:  man    |  Dil  *  müp te  |  lâ  | 
B8 A4A4 G4F4  | G16-G4z4  | 
w:  dır  *  el_ *  a  |  man    | 
d4g4 f4e8d4  | d4=f4 e4d8c4  | B4e4 d4c4 B4A4  | \
w:  ARANAĞME  |   |   | 
G4A4 B4c4 d4e4  | 
w:   | 
d4g4 f4e8d4  | d4=f4 e4d8c4  | B4e4 d4c4 B4A4  | \
w:  ARANAĞME  |   |   | 
G4B4 d4G12  | G8 F4G8A4  | 
w:   |  Sev *  dim  yi  | 
B16-B4z4  | B8 A4B8c4  | d16-d4z4  | g8 f4g8e4  | \
w:  ne   |  bir  *  nev ci  |  vân    |  Aşk_ *  ı  de  | 
d8 =f4e4 d4c4  | B8 A4A4 G4F4  | 
w:  rû  |  num *  da  *  ni  | 
G12F4 E4D4  | G8 F4G8A4  | B16-B4z4  | B8 A4B8c4  | \
w:  hân   SAZ  |  Sev *  dim  yi  |  ne   |  bir  *  nev ci  | 
d16-d4z4  | g8 f4g8e4  | 
w:  vân    |  Aşk_ *  ı  de  | 
d8 =f4e4 d4c4  | B8 A4A4 G4F4  | G16-G4z4  | \
w:  rû  |  num *  da  *  ni  |  hân    | 
g8 f4g8^3/4f4  | e16-e4d4  | e8 d4e8f4  | 
w:  Hüsn_ *  i le   |  müm  |  tâz_ *  ı  ci  | 
g4f4 e4d4 c4B4  | g8 f4g8^3/4f4  | e16-e4d4  | \
w:  hân    |  Hüsn_ *  i le   |  müm  | 
e8 d4e8f4  | g16-g4z4  | g8 f4g8e4  | 
w:  tâz_ *  ı  ci  |  hân    |  Çeşm_ *  i  si  | 
d8 =f4e4 d4c4  | B8 A4A4 G4F4  | G4A4 B4c4 d4e4  | \
w:  yah   |  ka *  şı  *  ke  |  man    | 
g8 f4g8e4  | d8 =f4e4 d4c4  | 
w:  Dil  *  müp te  |  lâ  | 
B8 A4A4 G4F4  | G16-G4z4  | g8 f4g8e4  | \
w:  dır  *  el_ *  a  |  man    |  Çeşm_ *  i  si  | 
d8 =f4e4 d4c4  | B8 A4A4 G4F4  | 
w:  yah   |  ka *  şı  *  ke  | 
G4A4 B4c4 d4e4  | g8 f4g8e4  | d8 =f4e4 d4c4  | \
w:  man    |  Dil  *  müp te  |  lâ  | 
B8 A4A4 G4F4  | G16-G4z4  | 
w:  dır  *  el_ *  a  |  man    | 
|


